svgs/sharp-light/jug.svg

<svg xmlns="http://www.w3.org/2000/svg" viewBox="0 0 448 512"><!--! Font Awesome Pro 6.6.0 by @fontawesome - https://fontawesome.com License - https://fontawesome.com/license (Commercial License) Copyright 2024 Fonticons, Inc. --><path d="M169.3 115.6L176 107l0-11 0-64 96 0 0 64 0 11 6.7 8.7L384 251l0 37L64 288l0-37L169.3 115.6zM128 32l16 0 0 64L32 240l0 64 0 96 0 80 0 32 32 0 320 0 32 0 0-32 0-80 0-96 0-64-14.4-18.5c26.8-7.7 46.4-32.3 46.4-61.5c0-35.3-28.7-64-64-64c-23.6 0-44.2 12.8-55.3 31.8L304 96l0-64 16 0 0-32L304 0 272 0 176 0 144 0 128 0l0 32zM378.3 191.5l-26.2-33.7c1.1-16.7 15-29.8 31.9-29.8c17.7 0 32 14.3 32 32s-14.3 32-32 32c-2 0-3.9-.2-5.7-.5zM64 384l0-64 320 0 0 64L64 384zm0 32l320 0 0 64L64 480l0-64z"/></svg>

<svg xmlns="http://www.w3.org/2000/svg" viewBox="0 0 448 512"><!--! Font Awesome Pro 6.4.0 by @fontawesome - https://fontawesome.com License - https://fontawesome.com/license (Commercial License) Copyright 2023 Fonticons, Inc. --><path d="M169.3 115.6L176 107V96 32h96V96v11l6.7 8.7L384 251v37H64V251L169.3 115.6zM128 32h16V96L32 240v64 96 80 32H64 384h32V480 400 304 240l-14.4-18.5c26.8-7.7 46.4-32.3 46.4-61.5c0-35.3-28.7-64-64-64c-23.6 0-44.2 12.8-55.3 31.8L304 96V32h16V0H304 272 176 144 128V32zM378.3 191.5l-26.2-33.7c1.1-16.7 15-29.8 31.9-29.8c17.7 0 32 14.3 32 32s-14.3 32-32 32c-2 0-3.9-.2-5.7-.5zM64 384V320H384v64H64zm0 32H384v64H64V416z"/></svg>
